src/assets/icons/train-itinerary.svg

<svg width="30" height="30" viewBox="0 0 30 30" fill="none" xmlns="http://www.w3.org/2000/svg">
<rect width="30" height="30" rx="15" fill="#C3E1FF"/>
<rect x="3" y="3" width="24" height="24" rx="12" fill="white" stroke="#379AFF"/>
<path d="M10.2026 22C9.95915 21.8326 9.93886 21.6852 10.1215 21.4508C10.7234 20.7074 11.3253 19.9572 11.9273 19.2138C11.9543 19.1803 11.9746 19.1468 12.0287 19.0798C11.8055 19.0798 11.6094 19.0865 11.42 19.0798C10.6693 19.0329 10.0538 18.3966 10.0674 17.6532C10.0741 17.0705 10.1215 16.4878 10.1553 15.9051C10.1891 15.2755 10.2229 14.6526 10.2635 14.023C10.2703 13.8489 10.2703 13.8489 10.4393 13.889C11.0683 14.0297 11.6297 14.3244 12.1707 14.6593C13.0838 15.2219 13.9157 15.8783 14.7137 16.5882C14.9504 16.7959 15.0586 16.7959 15.2886 16.5882C16.1949 15.7845 17.1485 15.0344 18.2103 14.4383C18.6567 14.1837 19.1234 13.9761 19.6306 13.8756C19.7185 13.8622 19.732 13.8756 19.7388 13.956C19.7659 14.4985 19.7929 15.0477 19.8267 15.5903C19.8605 16.1797 19.8876 16.7691 19.9282 17.3652C19.9823 18.0952 19.6847 18.6712 19.0828 18.9525C18.8664 19.053 18.6364 19.0865 18.3997 19.0865C18.2644 19.0865 18.1359 19.0865 17.9736 19.0865C18.0818 19.2205 18.1697 19.3343 18.2644 19.4549C18.7987 20.118 19.333 20.7743 19.8673 21.4374C20.0634 21.6785 20.0432 21.8259 19.7997 22H19.6035C19.4683 21.9665 19.3939 21.8594 19.3127 21.7589C19.0287 21.4173 19.1436 21.4642 18.6973 21.4642C16.1881 21.4642 13.6789 21.4642 11.1698 21.4642C10.9872 21.4642 10.8587 21.5178 10.7505 21.6651C10.6558 21.7991 10.5678 21.9531 10.3852 22H10.1891H10.2026Z" fill="#0E286A"/>
<path d="M10.3993 21.9968C10.582 21.8628 10.6969 21.6686 10.839 21.5011C10.8863 21.4409 10.9336 21.4141 11.008 21.4141C13.6728 21.4141 16.3375 21.4141 18.9954 21.4141C19.0698 21.4141 19.1172 21.4409 19.1645 21.5011C19.3065 21.6686 19.4215 21.8628 19.6041 21.9968H10.3926H10.3993Z" fill="white"/>
<path d="M15.0126 8.0067C15.8242 8.0067 16.629 8.0067 17.4406 8.0067C18.4822 8.0067 19.3411 8.72336 19.4899 9.73472C19.5575 10.1768 19.5575 10.6322 19.5846 11.081C19.6251 11.7507 19.659 12.4272 19.6995 13.097C19.7063 13.2376 19.6725 13.2845 19.5305 13.3113C18.9623 13.4118 18.4416 13.6529 17.9411 13.9342C16.9198 14.5035 15.9933 15.2068 15.1208 15.9703C15.0329 16.044 14.9923 16.0507 14.9044 15.9703C13.9305 15.1197 12.9092 14.3428 11.746 13.7534C11.3266 13.539 10.887 13.3649 10.4204 13.2912C10.3392 13.2778 10.3189 13.2376 10.3257 13.164C10.3595 12.588 10.3865 12.012 10.4204 11.4293C10.4474 10.9939 10.4812 10.5585 10.4948 10.1232C10.515 9.46681 10.7247 8.9042 11.2387 8.47554C11.6039 8.16744 12.03 8 12.5102 8C13.3488 8 14.1807 8 15.0194 8L15.0126 8.0067Z" fill="#0E286A"/>
<path d="M11.3926 20.8206C11.5414 20.6397 11.6834 20.4723 11.8119 20.2982C11.8592 20.2379 11.9201 20.2513 11.9742 20.2513C13.8341 20.2513 15.6872 20.2513 17.5471 20.2513C17.6959 20.2513 17.8515 20.258 18.0003 20.2513C18.1152 20.2446 18.1829 20.2848 18.2505 20.3718C18.3587 20.5192 18.4805 20.6598 18.609 20.8206H11.3926Z" fill="white"/>
<path d="M17.676 19.6558H12.3398C12.4954 19.4616 12.6374 19.2874 12.7795 19.1133C12.8065 19.0798 12.8539 19.0865 12.8944 19.0865C14.3079 19.0865 15.7147 19.0865 17.1282 19.0865C17.1823 19.0865 17.2229 19.0865 17.2635 19.1334C17.3988 19.3008 17.5273 19.4683 17.6828 19.6558H17.676Z" fill="white"/>
<path d="M12.0688 17.9144C11.5886 17.9144 11.1963 17.5393 11.1895 17.0571C11.1828 16.5816 11.5683 16.1864 12.0485 16.1797C12.5354 16.1797 12.9345 16.5548 12.9345 17.0303C12.9345 17.5192 12.5557 17.9077 12.062 17.9144H12.0688Z" fill="#0E286A"/>
<path d="M18.8268 17.0437C18.8268 17.5259 18.4278 17.9211 17.9408 17.9144C17.4539 17.9144 17.0684 17.5259 17.0684 17.0437C17.0684 16.5682 17.4606 16.1797 17.9476 16.1797C18.4278 16.1797 18.82 16.5682 18.82 17.0437H18.8268Z" fill="#0E286A"/>
<path d="M14.7065 11.6571C14.7065 11.9786 14.7065 12.3001 14.7065 12.6283C14.7065 12.8359 14.6254 12.9364 14.409 12.9632C13.7597 13.0368 13.1172 13.1105 12.4679 13.1775C12.265 13.1976 12.0689 13.2177 11.866 13.2445C11.6428 13.278 11.4805 13.1641 11.4805 12.9364C11.4805 12.2733 11.4805 11.6102 11.4805 10.9404C11.4805 10.7596 11.5887 10.6524 11.7645 10.6323C12.4476 10.5587 13.1307 10.485 13.8138 10.4113C13.9896 10.3912 14.1722 10.3644 14.3481 10.3577C14.5916 10.3376 14.7065 10.4515 14.7065 10.6926C14.7065 11.0141 14.7065 11.3356 14.7065 11.6638V11.6571Z" fill="white"/>
<path d="M18.5336 11.9467C18.5336 12.2548 18.5336 12.5629 18.5336 12.8777C18.5336 13.1657 18.3984 13.2729 18.1075 13.2394C17.4042 13.159 16.7008 13.0854 16.0042 13.0117C15.8554 12.9983 15.7133 12.9782 15.5645 12.9581C15.3955 12.9313 15.3075 12.8309 15.3008 12.6634C15.3008 11.9936 15.3008 11.3239 15.3008 10.6541C15.3008 10.4465 15.4293 10.3393 15.6525 10.3527C15.9568 10.3795 16.2612 10.413 16.5723 10.4465C17.1133 10.5067 17.6544 10.567 18.2022 10.6273C18.4254 10.6541 18.5336 10.7545 18.5336 10.9756C18.5336 11.2971 18.5336 11.6186 18.5336 11.9467Z" fill="white"/>
</svg>

<svg xmlns="http://www.w3.org/2000/svg" width="30" height="30" fill="none" viewBox="0 0 30 30">
  <rect width="30" height="30" fill="#C3E1FF" rx="15"/>
  <rect width="24" height="24" x="3" y="3" fill="#fff" stroke="#379AFF" rx="12"/>
  <path fill="#0E286A" d="M10.203 22c-.244-.167-.264-.315-.082-.55.602-.743 1.204-1.493 1.806-2.236.027-.034.048-.067.102-.134-.223 0-.42.007-.609 0-.75-.047-1.366-.683-1.353-1.427.007-.582.054-1.165.088-1.748.034-.63.068-1.252.109-1.882.006-.174.006-.174.175-.134.63.14 1.19.435 1.732.77.913.563 1.745 1.22 2.543 1.93.236.207.345.207.575 0 .906-.804 1.86-1.555 2.921-2.15.447-.255.913-.463 1.42-.563.088-.014.102 0 .109.08.027.543.054 1.092.088 1.634.033.59.06 1.18.101 1.775.054.73-.243 1.306-.845 1.588-.217.1-.447.134-.683.134h-.426c.108.134.196.247.29.368.535.663 1.069 1.32 1.603 1.982.196.241.176.389-.067.563h-.197c-.135-.034-.21-.14-.29-.241-.284-.342-.17-.295-.616-.295H11.17c-.183 0-.311.054-.42.201-.094.134-.182.288-.365.335h-.196.014Z"/>
  <path fill="#fff" d="M10.4 21.997c.182-.134.297-.328.439-.496.047-.06.095-.087.169-.087h7.987c.075 0 .122.027.17.087.142.168.257.362.44.496h-9.212.006Z"/>
  <path fill="#0E286A" d="M15.013 8.007h2.428c1.041 0 1.9.716 2.049 1.728.068.442.068.897.095 1.346.04.67.074 1.346.114 2.016.007.14-.027.188-.169.214-.568.1-1.088.342-1.589.623-1.021.57-1.948 1.273-2.82 2.036-.088.074-.129.08-.217 0-.973-.85-1.995-1.627-3.158-2.217-.42-.214-.859-.388-1.326-.462-.08-.013-.101-.053-.094-.127.034-.576.06-1.152.094-1.735.027-.435.061-.87.075-1.306.02-.656.23-1.219.744-1.647A1.93 1.93 0 0 1 12.51 8h2.51l-.007.007Z"/>
  <path fill="#fff" d="M11.393 20.82c.148-.18.29-.348.419-.522.047-.06.108-.047.162-.047h5.573c.149 0 .305.007.453 0 .115-.006.183.034.25.12.109.148.23.289.359.45h-7.216ZM17.676 19.656H12.34c.155-.194.297-.369.44-.543.027-.033.074-.026.114-.026h4.234c.054 0 .095 0 .136.046.135.168.263.335.419.523h-.007Z"/>
  <path fill="#0E286A" d="M12.069 17.914a.87.87 0 0 1-.88-.857.87.87 0 0 1 .86-.877c.486 0 .886.375.886.85a.875.875 0 0 1-.873.884h.007ZM18.827 17.044a.875.875 0 0 1-.886.87.867.867 0 1 1 .007-1.734.87.87 0 0 1 .872.864h.007Z"/>
  <path fill="#fff" d="M14.707 11.657v.971c0 .208-.082.308-.298.335-.65.074-1.292.148-1.941.215-.203.02-.4.04-.602.066-.223.034-.386-.08-.386-.308V10.94c0-.18.109-.288.284-.308l2.05-.22c.176-.02.358-.048.534-.054.244-.02.358.093.358.335v.97-.006ZM18.534 11.947v.93c0 .289-.136.396-.426.362-.704-.08-1.407-.154-2.104-.227-.149-.014-.29-.034-.44-.054-.168-.027-.257-.127-.263-.295v-2.009c0-.207.128-.315.351-.301.305.027.61.06.92.094l1.63.18c.223.027.332.127.332.349v.97Z"/>
</svg>
